X:1
T:Sienna, SM
T:Sienna, SM
T:John H. Deane, 1869
T:Public Domain Courtesy of the Cyber Hymnal™
C:John H. Deane, 1869
Z:Public Domain
Z:Courtesy of the Cyber Hymnal™
%%score ( 1 2 ) ( 3 4 )
L:1/8
Q:1/4=125
M:4/4
K:Eb
V:1 treble 
V:2 treble 
V:3 bass 
V:4 bass 
V:1
 [EB]4 [Ec]2 [DB]2 | [Ee]4 ([Fd]2 [Ec]2) | [AB]8 | [GB]4 [G=B]2 [GB]2 | [Ec]4 A4 | [DF]8 | %6
 [EG]4 [D^F]2 [EG]2 | [=EG]4 [FA]4 | [FA]4 ([=EG]2 [FA]2) | ([^F=A]4 [GB]4) | [Ee]4 [Fd]2 [Ec]2 | %11
 [GB]4 [^F=A]2 [=F_A]2 | [EG]8 |] %13
V:2
 x8 | x8 | x8 | x8 | x4 (F2 E2) | x8 | x8 | x8 | x8 | x8 | x8 | x8 | x8 |] %13
V:3
 [E,G,]4 A,2 [F,A,]2 | [G,B,]4 (=B,2 C2) | [D,F]8 | [E,E]4 [E,_D]2 [E,D]2 | [A,C]4 (C2 _C2) | %5
 [B,,B,]8 | [E,B,]4 [E,B,]2 [E,B,]2 | [B,,B,]4 [B,,B,]4 | [D,B,]4 [B,,B,]4 | (C4 B,4) | %10
 [G,B,]4 [A,=B,]2 [A,C]2 | (E2 B,2) (C2 D2) | [E,E]8 |] %13
V:4
 x4 A,2 x2 | x4 A,4 | x8 | x8 | x4 F,4 | x8 | x8 | x8 | x8 | E,8 | x8 | B,4 B,,4 | x8 |] %13

